X:12026
T:Lord Zouche's Maske
R:March
C:Giles Farnaby circa 1600
O:England
Z:Paul Hardy's Session Tunebook 2015 (see www.paulhardy.net). Creative Commons cc by-nc-sa licenced.
M:2/2
L:1/8
Q:1/2=85
K:Dmaj
"D"A4 d4|F3G A4|d2A2 B2A2|F3G A4|"A"A3B cd e2|"G"G3A Bcd2|"D"F3F "A"ED E2|"D"D4 d4:|
|:"D" A3A "G" Bcd2|"A" cdec "D" d3d|"A" efge "D" fga2|"A7" ageg "D" f2d2|
"A"A3B cde2|"G"G3A Bcd2|"D"F3F "A7"ED E2|"D"D8:|

